svg/color/googlon.svg

<svg width="40" height="40" viewBox="0 0 40 40" fill="none" xmlns="http://www.w3.org/2000/svg">
<g clip-path="url(#clip0_820_3903)">
<path d="M20 0C31.0457 0 40 8.9543 40 20C40 31.0457 31.0457 40 20 40C8.95431 40 7.90517e-06 31.0457 0 20C6.58765e-07 8.95431 8.95431 1.97595e-06 20 0Z" fill="#D9E7FD"/>
<path d="M26 6C30.4183 6 34 9.58172 34 14V26C34 30.4183 30.4183 34 26 34H14C9.58172 34 6 30.4183 6 26V14C6 9.58172 9.58172 6 14 6H26Z" fill="#4285F4"/>
<g clip-path="url(#clip1_820_3903)">
<path d="M20.4 19.1V21.8333H26.9333C26.7333 23.3667 26.2225 24.4892 25.4442 25.2775C24.4883 26.2333 23 27.2775 20.4 27.2775C16.3775 27.2775 13.2333 24.0333 13.2333 20.0108C13.2333 15.9883 16.3775 12.7442 20.4 12.7442C22.5667 12.7442 24.1558 13.6 25.3225 14.7L27.245 12.7775C25.6225 11.2 23.4442 10 20.4 10C14.8892 10 10.2558 14.4892 10.2558 20C10.2558 25.5108 14.8892 30 20.4 30C23.3775 30 25.6225 29.0225 27.3775 27.2C29.1775 25.4 29.7442 22.8558 29.7442 20.8108C29.7442 20.1775 29.7 19.5883 29.6 19.1H20.4Z" fill="white"/>
</g>
</g>
<defs>
<clipPath id="clip0_820_3903">
<rect width="40" height="40" fill="white"/>
</clipPath>
<clipPath id="clip1_820_3903">
<rect width="20" height="20" fill="white" transform="translate(10 10)"/>
</clipPath>
</defs>
</svg>

<svg xmlns="http://www.w3.org/2000/svg" width="40" height="40" fill="none" viewBox="0 0 40 40"><g clip-path="url(#googlon_svg-a)"><path fill="#D9E7FD" d="M20 0c11.046 0 20 8.954 20 20s-8.954 20-20 20S0 31.046 0 20 8.954 0 20 0"/><path fill="#4285F4" d="M26 6a8 8 0 0 1 8 8v12a8 8 0 0 1-8 8H14a8 8 0 0 1-8-8V14a8 8 0 0 1 8-8z"/><g clip-path="url(#googlon_svg-b)"><path fill="#fff" d="M20.4 19.1v2.733h6.533c-.2 1.534-.71 2.656-1.489 3.445-.956.955-2.444 2-5.044 2-4.022 0-7.167-3.245-7.167-7.267s3.145-7.267 7.167-7.267c2.167 0 3.756.856 4.923 1.956l1.922-1.922C25.622 11.2 23.445 10 20.4 10c-5.51 0-10.144 4.49-10.144 10S14.889 30 20.4 30c2.978 0 5.223-.977 6.978-2.8 1.8-1.8 2.366-4.344 2.366-6.39 0-.633-.044-1.222-.144-1.71z"/></g></g><defs><clipPath id="googlon_svg-a"><path fill="#fff" d="M0 0h40v40H0z"/></clipPath><clipPath id="googlon_svg-b"><path fill="#fff" d="M10 10h20v20H10z"/></clipPath></defs></svg>
